X:36
T:Johnny Allen's
S:Billy McComiskey GLCD1034
N:A Galway tune. Transcribed by Alan Ng.
A:Galway, Ireland
Z: id:ng-reels-36 transcribed by Alan Ng agng@students.wisc.edu Feb. 10, 2000
R:reel
K:DMix
M:C|
A2BG AGFA|EccB cdcB|A2BG AGFE|DGGF G2FG|A2BG AGFG|Adde f2fg|afge fdec|dBAF G2FG::\
A3g fde^c|A~d3 A~d3|A3g fde^c|dBAF G2FG|A3g fde^c|Adde f2fg|afge fde^c|dBAF G2FG:|**
